src/assets/img/smiles/5.svg

<svg width="66" height="66" viewBox="0 0 66 66" fill="none" xmlns="http://www.w3.org/2000/svg">
<path d="M60.294 32.644C60.294 49.015 47.02 62.287 30.647 62.287C14.273 62.287 1 49.015 1 32.644C1 16.272 14.273 3 30.647 3C47.02 3 60.294 16.272 60.294 32.644Z" fill="#EDC951"/>
<path d="M35.039 48.23H29.641C22.746 48.23 17.345 42.918 17.345 36.136C17.345 35.307 18.017 34.636 18.845 34.636C19.674 34.636 20.345 35.307 20.345 36.136C20.345 41.236 24.428 45.231 29.641 45.231H35.039C40.252 45.231 44.335 41.324 44.335 36.337C44.335 35.508 45.006 34.837 45.835 34.837C46.664 34.837 47.335 35.508 47.335 36.337C47.335 43.007 41.934 48.23 35.039 48.23Z" fill="black"/>
<path d="M25.297 23.278C24.914 23.278 24.53 23.132 24.237 22.839C22.815 21.418 20.463 21.367 19.102 22.729C18.516 23.315 17.566 23.315 16.98 22.729C16.394 22.144 16.394 21.194 16.98 20.609C19.493 18.096 23.787 18.147 26.358 20.718C26.944 21.303 26.944 22.253 26.358 22.839C26.065 23.132 25.681 23.278 25.297 23.278Z" fill="black"/>
<path d="M45.7021 23.278C45.3181 23.278 44.9341 23.132 44.6411 22.839C43.2211 21.418 40.8681 21.367 39.5061 22.729C38.9201 23.315 37.9711 23.315 37.3851 22.729C36.7991 22.144 36.7991 21.194 37.3851 20.609C39.8971 18.096 44.1911 18.147 46.7621 20.718C47.3481 21.303 47.3481 22.253 46.7621 22.839C46.4691 23.132 46.0851 23.278 45.7021 23.278Z" fill="black"/>
<path d="M31.147 62.754C13.973 62.754 0 48.783 0 31.611C0 14.439 13.973 0.467987 31.147 0.467987C48.322 0.467987 62.294 14.439 62.294 31.611C62.294 48.783 48.322 62.754 31.147 62.754ZM31.147 3.46799C15.627 3.46799 3 16.092 3 31.611C3 47.13 15.627 59.755 31.147 59.755C46.668 59.755 59.294 47.13 59.294 31.611C59.294 16.092 46.668 3.46799 31.147 3.46799Z" fill="black"/>
</svg>

<?xml version="1.0" encoding="iso-8859-1"?>
<!-- Generator: Adobe Illustrator 19.1.0, SVG Export Plug-In . SVG Version: 6.00 Build 0)  -->
<svg version="1.1" id="Capa_1" xmlns="http://www.w3.org/2000/svg" xmlns:xlink="http://www.w3.org/1999/xlink" x="0px" y="0px"
	 viewBox="0 0 65.427 65.427" style="enable-background:new 0 0 65.427 65.427;" xml:space="preserve">
<g>
	<g id="group-6svg">
		<path id="path-1_46_" style="fill:#EDC951;" d="M65.427,35.317c0,16.371-13.274,29.643-29.647,29.643
			c-16.374,0-29.647-13.272-29.647-29.643c0-16.372,13.273-29.644,29.647-29.644C52.153,5.673,65.427,18.945,65.427,35.317z"/>
		<path id="path-2_46_" d="M35.039,48.23h-5.398c-6.895,0-12.296-5.312-12.296-12.094c0-0.829,0.672-1.5,1.5-1.5
			c0.829,0,1.5,0.671,1.5,1.5c0,5.1,4.083,9.095,9.296,9.095h5.398c5.213,0,9.296-3.907,9.296-8.894c0-0.829,0.671-1.5,1.5-1.5
			c0.829,0,1.5,0.671,1.5,1.5C47.335,43.007,41.934,48.23,35.039,48.23z"/>
		<path id="path-3_46_" d="M25.297,23.278c-0.383,0-0.767-0.146-1.06-0.439c-1.422-1.421-3.774-1.472-5.135-0.11
			c-0.586,0.586-1.536,0.586-2.122,0c-0.586-0.585-0.586-1.535,0-2.12c2.513-2.513,6.807-2.462,9.378,0.109
			c0.586,0.585,0.586,1.535,0,2.121C26.065,23.132,25.681,23.278,25.297,23.278z"/>
		<path id="path-4_46_" d="M45.702,23.278c-0.384,0-0.768-0.146-1.061-0.439c-1.42-1.421-3.773-1.472-5.135-0.11
			c-0.586,0.586-1.535,0.586-2.121,0c-0.586-0.585-0.586-1.535,0-2.12c2.512-2.513,6.806-2.462,9.377,0.109
			c0.586,0.585,0.586,1.535,0,2.121C46.469,23.132,46.085,23.278,45.702,23.278z"/>
		<path id="path-5_46_" d="M31.147,62.754C13.973,62.754,0,48.783,0,31.611S13.973,0.468,31.147,0.468
			c17.175,0,31.147,13.971,31.147,31.143S48.322,62.754,31.147,62.754z M31.147,3.468C15.627,3.468,3,16.092,3,31.611
			s12.627,28.144,28.147,28.144c15.521,0,28.147-12.625,28.147-28.144S46.668,3.468,31.147,3.468z"/>
	</g>
</g>
<g>
</g>
<g>
</g>
<g>
</g>
<g>
</g>
<g>
</g>
<g>
</g>
<g>
</g>
<g>
</g>
<g>
</g>
<g>
</g>
<g>
</g>
<g>
</g>
<g>
</g>
<g>
</g>
<g>
</g>
</svg>
